assets/awssnowball/original.svg

<svg height="64" viewBox="0 0 64 64" width="64" xmlns="http://www.w3.org/2000/svg"><g fill="none" fill-rule="evenodd"><path d="m0 0h64v64h-64z" fill="#7aa116"/><path d="m29 20h6v-2h-6zm-7 17h20v-9h-20zm21-11h-22a1 1 0 0 0 -1 1v11a1 1 0 0 0 1 1h22a1 1 0 0 0 1-1v-11a1 1 0 0 0 -1-1m9 17.951c0 1.681-1.271 3.049-2.832 3.049h-34.336c-1.561 0-2.832-1.368-2.832-3.049v-24.902c0-1.681 1.271-3.049 2.832-3.049h34.336c1.561 0 2.832 1.368 2.832 3.049zm-2.832-29.951h-34.336c-2.664 0-4.832 2.265-4.832 5.049v24.902c0 2.784 2.168 5.049 4.832 5.049h34.336c2.664 0 4.832-2.265 4.832-5.049v-24.902c0-2.784-2.168-5.049-4.832-5.049m-1.168 28.121c0 .476-.387.879-.845.879h-30.31c-.458 0-.845-.403-.845-.879v-21.242c0-.476.387-.879.845-.879h7.434l.773 2.316a1 1 0 0 0 .948.684h12a1 1 0 0 0 .948-.684l.773-2.316h7.434c.458 0 .845.403.845.879zm-.845-24.121h-8.155a1 1 0 0 0 -.948.684l-.773 2.316h-10.558l-.773-2.316a1 1 0 0 0 -.948-.684h-8.155c-1.569 0-2.845 1.292-2.845 2.879v21.242c0 1.587 1.276 2.879 2.845 2.879h30.31c1.569 0 2.845-1.292 2.845-2.879v-21.242c0-1.587-1.276-2.879-2.845-2.879" fill="#fff"/></g></svg>

<svg xmlns="http://www.w3.org/2000/svg" width="64" height="64" viewBox="0 0 64 64"><g fill="none" fill-rule="evenodd"><path fill="#7aa116" d="M0 0h64v64H0z"/><path fill="#fff" d="M29 20h6v-2h-6zm-7 17h20v-9H22zm21-11H21a1 1 0 0 0-1 1v11a1 1 0 0 0 1 1h22a1 1 0 0 0 1-1V27a1 1 0 0 0-1-1m9 17.951C52 45.632 50.729 47 49.168 47H14.832C13.271 47 12 45.632 12 43.951V19.049C12 17.368 13.271 16 14.832 16h34.336C50.729 16 52 17.368 52 19.049zM49.168 14H14.832C12.168 14 10 16.265 10 19.049v24.902C10 46.735 12.168 49 14.832 49h34.336C51.832 49 54 46.735 54 43.951V19.049C54 16.265 51.832 14 49.168 14M48 42.121c0 .476-.387.879-.845.879h-30.31c-.458 0-.845-.403-.845-.879V20.879c0-.476.387-.879.845-.879h7.434l.773 2.316A1 1 0 0 0 26 23h12a1 1 0 0 0 .948-.684L39.721 20h7.434c.458 0 .845.403.845.879zM47.155 18H39a1 1 0 0 0-.948.684L37.279 21H26.721l-.773-2.316A1 1 0 0 0 25 18h-8.155C15.276 18 14 19.292 14 20.879v21.242C14 43.708 15.276 45 16.845 45h30.31C48.724 45 50 43.708 50 42.121V20.879C50 19.292 48.724 18 47.155 18"/></g></svg>
